X:1
T:A New Heart
T:A New Heart
T:Scott Werdebaugh
T:Scott Werdebaugh, 1993
T:© 1993 Scott Werdebaugh. Reproduce or publish freely for Christian worship or devotions. Courtesy of the Cyber Hymnal™
T:© 1993 Scott Werdebaugh. Reproduce or publish freely for Christian worship or devotions. Courtesy of the Cyber Hymnal™
T:© 1993 Scott Werdebaugh. Reproduce or publish freely for Christian worship or devotions. Courtesy of the Cyber Hymnal™
C:Scott Werdebaugh
Z:© 1993 Scott Werdebaugh. Reproduce or publish freely for Christian worship or devotions.
Z:Courtesy of the Cyber Hymnal™
%%score ( 1 2 ) ( 3 4 ) ( 5 6 ) ( 7 8 )
L:1/8
Q:1/4=164
M:6/4
K:C
V:1 treble 
V:2 treble 
V:3 bass 
V:4 bass 
V:5 treble 
V:6 treble 
V:7 bass 
V:8 bass 
V:1
!mp!"^Prayerfully" [CE]4 [CE]2 [CE]2 [CF]2 [EG]2 | [CG]6 [CF]4 [CE]2 | %2
w: 1.~Lord, I come now be-|fore You, to|
w: 2.~Lord, please qui- et my|spir- it, that|
w: 3.~Teach me, Lord, to be|faith- ful, Your|
 [B,D]4 [B,D]2 [B,D]2 [CE]2 [B,F]2 | [CE]6- [CE]4 z2 | [FA]4 [FA]2 [Ac]2 [GB]2 [FA]2 | A6 [EG]6 | %6
w: lay my life at Your|feet. *|Sweep now o- ver my|spir- it,|
w: I may hear when You|call. *|Free me from earth- ly|pas- sions,|
w: Word and will to o-|bey. *|Help me fol- low You|on- ly,|
 [D^F]6 [DF]2 [DG]2 [DA]2 | [DG]6- [DG]4 z2 | [CE]4 [CE]2 [CE]2 [CF]2 [EG]2 | [CG]6 [CF]4 [CE]2 | %10
w: and make me com-|plete. *|Lord, please give me a|new heart, and|
w: and don’t let me|fall. *|Fill me full with Your|pre- sence; sur-|
w: and nev- er to|stray. *|Lord, please make me Your|ser- vant, and|
 [B,D]4 [B,D]2 ([B,D]2 [CE]2) [B,F]2 | [CE]6- [CE]4 z2 | [FA]6 [FA]2 [GB]2 [FA]2 | %13
w: free me from * my|sin. *|I want to be|
w: round me with * Your|love. *|Lord, I want to|
w: fill me with * Your|grace. *|I want to live|
 A6 [EG]4 [CF]2 x2 | [CE]4 [CE]2 [CF]2 [B,D]2 [B,E]2 | C6- C4"^Play 3 times" z2 :| %16
w: ho- ly, and|whol- ly pu- re with-|in. *|
w: know You, and|seek things on- ly a-|bove. *|
w: for You, both|now and then, face to|face. *|
V:2
 x12 | x12 | x12 | x12 | x12 | (F4 D2) x6 | x12 | x12 | x12 | x12 | x12 | x12 | x12 | (C4 D2) x8 | %14
 x12 | C6- C4 x2 :| %16
V:3
!mp! [C,G,]4 [C,G,]2 [C,G,]2 [F,A,]2 [G,C]2 | [F,A,]6 [F,A,]4 [C,G,]2 | %2
 [G,,G,]4 [G,,G,]2 [G,,F,]2 [C,G,]2 [D,G,]2 | [C,G,]6- [C,G,]4 z2 | %4
 [C,A,]4 [C,A,]2 [C,F,]2 [D,G,]2 [F,A,]2 | (A,4 B,2) [E,C]6 | [D,A,]6 [C,A,]2 [G,,B,]2 [D,^F,]2 | %7
 ([G,B,-]6 [F,B,]4) z2 | [E,G,]4 [D,G,]2 [C,G,]2 [F,A,]2 [G,C]2 | [F,A,]6 [F,A,]4 [C,G,]2 | %10
 [G,,G,]4 [G,,G,]2 ([G,,F,]2 [C,G,]2) [D,G,]2 | [C,G,]6- [C,G,]4 z2 | [F,C]6 [F,C]2 [F,D]2 [F,C]2 | %13
 (A,4 B,2) [E,C]4 [D,A,]2 x2 | [A,,A,]4 [C,G,]2 [F,A,]2 [G,,F,]2 [G,,G,]2 | %15
 [C,E,]6- [C,E,]4 z2"^Play 3 times" :| %16
V:4
 x12 | x12 | x12 | x12 | x12 | C,6 x6 | x12 | x12 | x12 | x12 | x12 | x12 | x12 | C,6 x8 | x12 | %15
 x12 :| %16
V:5
!p! [CE]4 [CE]2 [CE]2 [CF]2 [EG]2 | [CG]6 [CF]4 [CE]2 | [B,D]4 [B,D]2 [B,D]2 [CE]2 [B,F]2 | %3
 [CE]6- [CE]6 | [FA]4 [FA]2 [Ac]2 [GB]2 [FA]2 | [FA]6 [EG]6 | [D^F]6 [DF]2 [DG]2 [DA]2 | %7
 [DG]6- [DG]6 | [CE]4 [CE]2 [CE]2 [CF]2 [EG]2 | [CG]6 [CF]4 [CE]2 | %10
 [B,D]4 [B,D]2 ([B,D]2 [CE]2) [B,F]2 | [CE]6- [CE]6 | [FA]6 [FA]2 [GB]2 [FA]2 | A6 D2 [EG]4 [CF]2 | %14
 [CE]4 [CE]2 [CF]2 [B,D]2 [B,E]2 | C6- C6"^Play 3 times" :| %16
V:6
 x12 | x12 | x12 | x12 | x12 | x12 | x12 | x12 | x12 | x12 | x12 | x12 | x12 | C4 x10 | x12 | %15
 C6- C6 :| %16
V:7
!p! [C,G,]4 [C,G,]2 [C,G,]2 [F,A,]2 [G,C]2 | [F,A,]6 [F,A,]4 [C,G,]2 | %2
 [G,,G,]4 [G,,G,]2 [G,,F,]2 [C,G,]2 [D,G,]2 | [C,G,]6- [C,G,]6 | %4
 [C,A,]4 [C,A,]2 [C,F,]2 [D,G,]2 [F,A,]2 | (A,4 B,2) C6 | [D,A,]6 [C,A,]2 [G,,B,]2 [D,^F,]2 | %7
 ([G,B,-]6 B,6) | [E,G,]4 [D,G,]2 [C,G,]2 [F,A,]2 [G,C]2 | [F,A,]6 [F,A,]4 [C,G,]2 | %10
 [G,,G,]4 [G,,G,]2 ([G,,F,]2 [C,G,]2) [D,G,]2 | [C,G,]6- [C,G,]6 | [F,C]6 [F,C]2 [F,D]2 [F,C]2 | %13
 (A,4 B,2) [E,C]4 [D,A,]2 x2 | [A,,A,]4 [C,G,]2 [F,A,]2 [G,,F,]2 [G,,G,]2 | %15
 [C,E,]6- [C,E,]6"^Play 3 times" :| %16
V:8
 x12 | x12 | x12 | x12 | x12 | C,6 E,6 | x12 | x6 F,6 | x12 | x12 | x12 | x12 | x12 | C,6 x8 | %14
 x12 | x12 :| %16

